images/Поиск.svg

<svg width="43" height="66" viewBox="0 0 43 66" fill="none" xmlns="http://www.w3.org/2000/svg">
<path d="M30.1585 40.05L26.448 36.35C27.4508 35.05 28.1528 33.35 28.1528 31.45C28.1528 27.05 24.5426 23.45 20.1301 23.45C15.7176 23.45 12.1074 27.15 12.1074 31.55C12.1074 35.95 15.7176 39.55 20.1301 39.55C21.9352 39.55 23.6401 38.95 25.044 37.85L28.7545 41.55L30.1585 40.05ZM20.1301 37.55C16.8208 37.55 14.1131 34.85 14.1131 31.55C14.1131 28.25 16.8208 25.55 20.1301 25.55C23.4395 25.55 26.1472 28.25 26.1472 31.55C26.1472 34.85 23.4395 37.55 20.1301 37.55Z" fill="black"/>
</svg>

<svg width="43" height="66" fill="none" xmlns="http://www.w3.org/2000/svg"><path d="m30.159 40.05-3.711-3.7c1.003-1.3 1.705-3 1.705-4.9 0-4.4-3.61-8-8.023-8-4.412 0-8.023 3.7-8.023 8.1 0 4.4 3.61 8 8.023 8 1.805 0 3.51-.6 4.914-1.7l3.71 3.7 1.404-1.5Zm-10.029-2.5c-3.31 0-6.017-2.7-6.017-6s2.708-6 6.017-6c3.31 0 6.017 2.7 6.017 6s-2.707 6-6.017 6Z" fill="#000"/></svg>
